static/img/olake/gauge.svg

<svg width="16" height="16" viewBox="0 0 16 16" fill="none" xmlns="http://www.w3.org/2000/svg">
<path d="M13.1175 4.36441C12.4463 3.69165 11.6485 3.15845 10.7702 2.79556C9.89182 2.43266 8.95034 2.24726 8 2.25003H7.97437C3.99062 2.26378 0.75 5.54753 0.75 9.57066V11C0.75 11.3316 0.881696 11.6495 1.11612 11.8839C1.35054 12.1183 1.66848 12.25 2 12.25H14C14.3315 12.25 14.6495 12.1183 14.8839 11.8839C15.1183 11.6495 15.25 11.3316 15.25 11V9.50003C15.2526 8.5454 15.0654 7.59978 14.6993 6.71814C14.3332 5.83649 13.7955 5.03641 13.1175 4.36441ZM13.75 10.75H7.9575L10.86 6.68753C10.9175 6.60742 10.9586 6.51679 10.981 6.42079C11.0034 6.3248 11.0067 6.22532 10.9907 6.12805C10.9747 6.03079 10.9397 5.93762 10.8876 5.85389C10.8356 5.77015 10.7676 5.69748 10.6875 5.64003C10.6074 5.58258 10.5168 5.54146 10.4208 5.51904C10.3248 5.49662 10.2253 5.49332 10.128 5.50934C10.0308 5.52535 9.93759 5.56037 9.85386 5.6124C9.77012 5.66442 9.69745 5.73242 9.64 5.81253L6.11375 10.75H2.25V9.57066C2.25 9.46316 2.25 9.35628 2.25875 9.25003H3.5C3.69891 9.25003 3.88968 9.17101 4.03033 9.03036C4.17098 8.88971 4.25 8.69894 4.25 8.50003C4.25 8.30112 4.17098 8.11035 4.03033 7.9697C3.88968 7.82905 3.69891 7.75003 3.5 7.75003H2.53875C3.22062 5.66316 5.03875 4.09253 7.25 3.79941V5.00003C7.25 5.19894 7.32902 5.38971 7.46967 5.53036C7.61032 5.67101 7.80109 5.75003 8 5.75003C8.19891 5.75003 8.38968 5.67101 8.53033 5.53036C8.67098 5.38971 8.75 5.19894 8.75 5.00003V3.80003C9.83174 3.94198 10.8508 4.38876 11.6881 5.08819C12.5254 5.78762 13.1465 6.71084 13.4788 7.75003H12.5C12.3011 7.75003 12.1103 7.82905 11.9697 7.9697C11.829 8.11035 11.75 8.30112 11.75 8.50003C11.75 8.69894 11.829 8.88971 11.9697 9.03036C12.1103 9.17101 12.3011 9.25003 12.5 9.25003H13.7437C13.7475 9.33316 13.75 9.41628 13.75 9.50003V10.75Z" fill="#407BFF"/>
</svg>

<svg xmlns="http://www.w3.org/2000/svg" width="16" height="16" fill="none" viewBox="0 0 16 16"><path fill="#407bff" d="M13.118 4.364A7.2 7.2 0 0 0 8 2.25h-.026C3.991 2.264.75 5.548.75 9.57V11A1.25 1.25 0 0 0 2 12.25h12A1.25 1.25 0 0 0 15.25 11V9.5a7.2 7.2 0 0 0-2.133-5.136m.632 6.386H7.958l2.902-4.062a.75.75 0 1 0-1.22-.875L6.114 10.75H2.25V9.57c0-.107 0-.214.009-.32H3.5a.75.75 0 0 0 0-1.5h-.961c.682-2.087 2.5-3.657 4.711-3.95V5a.75.75 0 0 0 1.5 0V3.8a5.75 5.75 0 0 1 4.729 3.95H12.5a.75.75 0 1 0 0 1.5h1.244q.006.124.006.25z"/></svg>
